X:90
T:Scotch Reel
O:No 90 Wm Clarke MS  Feltwell, Norfolk
I:abc2nwc
M:2/4
L:1/16
K:F
(cB)|A2F2 c3B|BAGF cABc|defe dcBA|B2G2 G2(cB)|
A2F2 c3B|BAGF cABc|defd gabg|a2f2 f2:|
(fg)|a3g (gf)(fd)|dcAc f3g|a3f g3f|d2gg (fg)|
(ac')(fa) gfdg|fcfg a3g|fadf cfAc|f2 F2 F2|]

